X:80
T:The Green Mountain
R:reel
N:
N:This is a pre-release from the O'Neill's Project. If you have a copy of
N:Neill's, please proofread this,
N:and if you find any discrepancies, send a note to the transcriber or to
N:c@trillian.mit.edu>
N:
N:Collected by McFadden
B:O'Neill's 1205
M:2/4
L:1/16
Q:1/4=120
K:D
(dB)||: A~F3 AFEF| D~F3 ABde| f2df edBd | Adfd edBd|
A~F3 AFEF| D~F3 ABde| f2df edBd | AFEF D4:||
||: f~a3 bafe | f2df efde | f2df edBd | Adfd edBd |
f~a3 bafe| f2df efde | f2df edBd | AFEF D4:||
